X: 1
P: Fisher's Hornpipe
R: reel
C: New England
C: Ryan's Mammoth Colln., arr. T. Traub 2-18-2004 (orig. F)
M: 4/4
L: 1/8
K: D
|: (3ABc|"D"dAFA "G"GBAG|"D"FDFD "G"GBAG|"D"FDFD "Em"GEGE|"E"FDFD "A"E2 (3ABc|"D"dAFA "G"GBAG|
"D"FDFD "G"GBAG|"D"FGAB "A"cdec|"D"d2 f2 d2 :||: cd|"A"ecAc ecge|"D"fdAd fdgf|"A"ecAc ecgf|
"E"edcB "A"A2 dc|"G"BGDG BGdB|"D"AFDF AFdA|"G"BdcB "A"AGFE|"D"D2 F2 D2 :|
